public/assets/img/icons/infrastructure-development.svg

<svg id="eDEYmxQqyod1" xmlns="http://www.w3.org/2000/svg" xmlns:xlink="http://www.w3.org/1999/xlink" viewBox="0 0 46 46" shape-rendering="geometricPrecision" text-rendering="geometricPrecision" project-id="0171510c6f5d44869a1bd086f7ee9974" export-id="a0fbeba501a947d8abd04d96bb829419" cached="false">
<style><![CDATA[
#eDEYmxQqyod2 {animation: eDEYmxQqyod2_s_do 3000ms linear infinite normal forwards}@keyframes eDEYmxQqyod2_s_do { 0% {stroke-dashoffset: 1.69} 56.666667% {stroke-dashoffset: 1.69} 63.333333% {stroke-dashoffset: 0} 100% {stroke-dashoffset: 0}} #eDEYmxQqyod3 {animation: eDEYmxQqyod3_s_do 3000ms linear infinite normal forwards}@keyframes eDEYmxQqyod3_s_do { 0% {stroke-dashoffset: 11.8} 6.666667% {stroke-dashoffset: 11.8} 20% {stroke-dashoffset: 0} 100% {stroke-dashoffset: 0}} #eDEYmxQqyod4 {animation: eDEYmxQqyod4_s_do 3000ms linear infinite normal forwards}@keyframes eDEYmxQqyod4_s_do { 0% {stroke-dashoffset: 40.28} 20% {stroke-dashoffset: 40.28} 36.666667% {stroke-dashoffset: 0} 100% {stroke-dashoffset: 0}} #eDEYmxQqyod5 {animation: eDEYmxQqyod5_s_do 3000ms linear infinite normal forwards}@keyframes eDEYmxQqyod5_s_do { 0% {stroke-dashoffset: 7.59} 36.666667% {stroke-dashoffset: 7.59} 46.666667% {stroke-dashoffset: 0} 100% {stroke-dashoffset: 0}} #eDEYmxQqyod6 {animation: eDEYmxQqyod6_s_do 3000ms linear infinite normal forwards}@keyframes eDEYmxQqyod6_s_do { 0% {stroke-dashoffset: 29.71} 46.666667% {stroke-dashoffset: 29.71} 60% {stroke-dashoffset: 0} 100% {stroke-dashoffset: 0}} #eDEYmxQqyod7 {animation: eDEYmxQqyod7_s_do 3000ms linear infinite normal forwards}@keyframes eDEYmxQqyod7_s_do { 0% {stroke-dashoffset: 1.69} 6.666667% {stroke-dashoffset: 0} 100% {stroke-dashoffset: 0}} #eDEYmxQqyod8 {animation: eDEYmxQqyod8_s_do 3000ms linear infinite normal forwards}@keyframes eDEYmxQqyod8_s_do { 0% {stroke-dashoffset: 1.69} 6.666667% {stroke-dashoffset: 1.69} 13.333333% {stroke-dashoffset: 0} 100% {stroke-dashoffset: 0}} #eDEYmxQqyod9 {animation: eDEYmxQqyod9_s_do 3000ms linear infinite normal forwards}@keyframes eDEYmxQqyod9_s_do { 0% {stroke-dashoffset: 1.69} 36.666667% {stroke-dashoffset: 1.69} 43.333333% {stroke-dashoffset: 0} 100% {stroke-dashoffset: 0}} #eDEYmxQqyod10 {animation: eDEYmxQqyod10_s_do 3000ms linear infinite normal forwards}@keyframes eDEYmxQqyod10_s_do { 0% {stroke-dashoffset: 1.69} 36.666667% {stroke-dashoffset: 1.69} 43.333333% {stroke-dashoffset: 0} 100% {stroke-dashoffset: 0}} #eDEYmxQqyod11 {animation: eDEYmxQqyod11_s_do 3000ms linear infinite normal forwards}@keyframes eDEYmxQqyod11_s_do { 0% {stroke-dashoffset: 1.69} 50% {stroke-dashoffset: 1.69} 56.666667% {stroke-dashoffset: 0} 100% {stroke-dashoffset: 0}} #eDEYmxQqyod12 {animation: eDEYmxQqyod12_s_do 3000ms linear infinite normal forwards}@keyframes eDEYmxQqyod12_s_do { 0% {stroke-dashoffset: 1.69} 43.333333% {stroke-dashoffset: 1.69} 50% {stroke-dashoffset: 0} 100% {stroke-dashoffset: 0}} #eDEYmxQqyod13 {animation: eDEYmxQqyod13_s_do 3000ms linear infinite normal forwards}@keyframes eDEYmxQqyod13_s_do { 0% {stroke-dashoffset: 1.69} 36.666667% {stroke-dashoffset: 1.69} 43.333333% {stroke-dashoffset: 0} 100% {stroke-dashoffset: 0}} #eDEYmxQqyod14 {animation: eDEYmxQqyod14_s_do 3000ms linear infinite normal forwards}@keyframes eDEYmxQqyod14_s_do { 0% {stroke-dashoffset: 1.69} 36.666667% {stroke-dashoffset: 1.69} 43.333333% {stroke-dashoffset: 0} 100% {stroke-dashoffset: 0}} #eDEYmxQqyod15 {animation: eDEYmxQqyod15_s_do 3000ms linear infinite normal forwards}@keyframes eDEYmxQqyod15_s_do { 0% {stroke-dashoffset: 1.69} 26.666667% {stroke-dashoffset: 1.69} 36.666667% {stroke-dashoffset: 0} 100% {stroke-dashoffset: 0}} #eDEYmxQqyod16 {animation: eDEYmxQqyod16_s_do 3000ms linear infinite normal forwards}@keyframes eDEYmxQqyod16_s_do { 0% {stroke-dashoffset: 1.69} 20% {stroke-dashoffset: 1.69} 26.666667% {stroke-dashoffset: 0} 100% {stroke-dashoffset: 0}} #eDEYmxQqyod17 {animation: eDEYmxQqyod17_s_do 3000ms linear infinite normal forwards}@keyframes eDEYmxQqyod17_s_do { 0% {stroke-dashoffset: 9.86} 13.333333% {stroke-dashoffset: 9.86} 20% {stroke-dashoffset: 0} 100% {stroke-dashoffset: 0}}
]]></style>
<path id="eDEYmxQqyod2" d="M42.0547,23.5281h1.6835" fill="none" stroke="#ee3524" stroke-width="1.5" stroke-linecap="round" stroke-linejoin="round" stroke-dashoffset="1.69" stroke-dasharray="1.69"/><path id="eDEYmxQqyod3" d="M6.91406,23.5281v11.7927" transform="matrix(-1 0 0-.857244 13.82812 54.648383)" fill="none" stroke="#ee3524" stroke-width="1.5" stroke-linecap="round" stroke-linejoin="round" stroke-dashoffset="11.8" stroke-dasharray="11.8"/><path id="eDEYmxQqyod4" d="M2.47656,21.803c0,7.1631,8.87964,7.1631,8.87964,0c0-3.1524-1.98886-10.9097-4.43983-10.9097s-4.43981,7.7573-4.43981,10.9097Z" fill="none" stroke="#ee3524" stroke-width="1.5" stroke-linecap="round" stroke-linejoin="round" stroke-dashoffset="40.28" stroke-dasharray="40.28"/><path id="eDEYmxQqyod5" d="M34.9023,11.7354v7.5839" transform="matrix(-1 0 0-.777977 69.804604 27.607271)" fill="none" stroke="#ee3524" stroke-width="1.5" stroke-linecap="round" stroke-linejoin="round" stroke-dashoffset="7.59" stroke-dasharray="7.59"/><path id="eDEYmxQqyod6" d="M31.1055,10.0023c0,4.9349,7.5757,4.9349,7.5757,0c0-2.17865-1.7-7.52623-3.7879-7.52623s-3.7878,5.34758-3.7878,7.52623Z" fill="none" stroke="#ee3524" stroke-width="1.5" stroke-linecap="round" stroke-linejoin="round" stroke-dashoffset="29.71" stroke-dasharray="29.71"/><path id="eDEYmxQqyod7" d="M2.47656,39.5293h1.6835" fill="none" stroke="#ee3524" stroke-width="1.5" stroke-linecap="round" stroke-linejoin="round" stroke-dashoffset="1.69" stroke-dasharray="1.69"/><path id="eDEYmxQqyod8" d="M8.37109,39.5293h1.68351" fill="none" stroke="#ee3524" stroke-width="1.5" stroke-linecap="round" stroke-linejoin="round" stroke-dashoffset="1.69" stroke-dasharray="1.69"/><path id="eDEYmxQqyod9" d="M20.1641,6.68472v-1.6835" fill="none" stroke="#ee3524" stroke-width="1.5" stroke-linecap="round" stroke-linejoin="round" stroke-dashoffset="1.69" stroke-dasharray="1.69"/><path id="eDEYmxQqyod10" d="M20.1641,12.5768v-1.6835" fill="none" stroke="#ee3524" stroke-width="1.5" stroke-linecap="round" stroke-linejoin="round" stroke-dashoffset="1.69" stroke-dasharray="1.69"/><path id="eDEYmxQqyod11" d="M36.1641,23.5281h1.6835" fill="none" stroke="#ee3524" stroke-width="1.5" stroke-linecap="round" stroke-linejoin="round" stroke-dashoffset="1.69" stroke-dasharray="1.69"/><path id="eDEYmxQqyod12" d="M30.2617,23.5281h1.6835" fill="none" stroke="#ee3524" stroke-width="1.5" stroke-linecap="round" stroke-linejoin="round" stroke-dashoffset="1.69" stroke-dasharray="1.69"/><path id="eDEYmxQqyod13" d="M24.3711,23.5281h1.6835" fill="none" stroke="#ee3524" stroke-width="1.5" stroke-linecap="round" stroke-linejoin="round" stroke-dashoffset="1.69" stroke-dasharray="1.69"/><path id="eDEYmxQqyod14" d="M20.1641,18.4774v-1.6835" fill="none" stroke="#ee3524" stroke-width="1.5" stroke-linecap="round" stroke-linejoin="round" stroke-dashoffset="1.69" stroke-dasharray="1.69"/><path id="eDEYmxQqyod15" d="M20.1641,24.3695v-1.6835" fill="none" stroke="#ee3524" stroke-width="1.5" stroke-linecap="round" stroke-linejoin="round" stroke-dashoffset="1.69" stroke-dasharray="1.69"/><path id="eDEYmxQqyod16" d="M20.1641,30.2621v-1.6835" fill="none" stroke="#ee3524" stroke-width="1.5" stroke-linecap="round" stroke-linejoin="round" stroke-dashoffset="1.69" stroke-dasharray="1.69"/><path id="eDEYmxQqyod17" d="M14.2734,39.5295h3.367c1.3947,0,2.5253-1.1306,2.5253-2.5253v-2.5252" fill="none" stroke="#ee3524" stroke-width="1.5" stroke-linecap="round" stroke-linejoin="round" stroke-dashoffset="9.86" stroke-dasharray="9.86"/><path d="M43.7387,27.7366h-16.8432c-1.3947,0-2.5252,1.1306-2.5252,2.5252v8.4175c0,2.7893-2.2612,5.0505-5.0505,5.0505h-16.84324" fill="none" stroke="#ee3524" stroke-width="1.5" stroke-linecap="round" stroke-linejoin="round"/><path d="M24.3711,2.47607v14.31793c0,1.3947,1.1306,2.5253,2.5252,2.5253h16.8432" fill="none" stroke="#ee3524" stroke-width="1.5" stroke-linecap="round" stroke-linejoin="round"/><path d="M2.47656,35.3207h10.95094c1.3947,0,2.5253-1.1305,2.5253-2.5252v-30.31943" fill="none" stroke="#ee3524" stroke-width="1.5" stroke-linecap="round" stroke-linejoin="round"/></svg>

<svg width="46" height="46" viewBox="0 0 46 46" fill="none" xmlns="http://www.w3.org/2000/svg">
<path d="M42.0547 23.5281H43.7382" stroke="#EE3524" stroke-width="1.5" stroke-linecap="round" stroke-linejoin="round"/>
<path d="M6.91406 23.5281V35.3208" stroke="#EE3524" stroke-width="1.5" stroke-linecap="round" stroke-linejoin="round"/>
<path d="M2.47656 21.803C2.47656 28.9661 11.3562 28.9661 11.3562 21.803C11.3562 18.6506 9.36734 10.8933 6.91637 10.8933C4.4654 10.8933 2.47656 18.6506 2.47656 21.803Z" stroke="#EE3524" stroke-width="1.5" stroke-linecap="round" stroke-linejoin="round"/>
<path d="M34.9023 11.7354V19.3193" stroke="#EE3524" stroke-width="1.5" stroke-linecap="round" stroke-linejoin="round"/>
<path d="M31.1055 10.0023C31.1055 14.9372 38.6812 14.9372 38.6812 10.0023C38.6812 7.82365 36.9812 2.47607 34.8933 2.47607C32.8055 2.47607 31.1055 7.82365 31.1055 10.0023Z" stroke="#EE3524" stroke-width="1.5" stroke-linecap="round" stroke-linejoin="round"/>
<path d="M2.47656 39.5293H4.16006" stroke="#EE3524" stroke-width="1.5" stroke-linecap="round" stroke-linejoin="round"/>
<path d="M8.37109 39.5293H10.0546" stroke="#EE3524" stroke-width="1.5" stroke-linecap="round" stroke-linejoin="round"/>
<path d="M20.1641 6.68472V5.00122" stroke="#EE3524" stroke-width="1.5" stroke-linecap="round" stroke-linejoin="round"/>
<path d="M20.1641 12.5768V10.8933" stroke="#EE3524" stroke-width="1.5" stroke-linecap="round" stroke-linejoin="round"/>
<path d="M36.1641 23.5281H37.8476" stroke="#EE3524" stroke-width="1.5" stroke-linecap="round" stroke-linejoin="round"/>
<path d="M30.2617 23.5281H31.9452" stroke="#EE3524" stroke-width="1.5" stroke-linecap="round" stroke-linejoin="round"/>
<path d="M24.3711 23.5281H26.0546" stroke="#EE3524" stroke-width="1.5" stroke-linecap="round" stroke-linejoin="round"/>
<path d="M20.1641 18.4774V16.7939" stroke="#EE3524" stroke-width="1.5" stroke-linecap="round" stroke-linejoin="round"/>
<path d="M20.1641 24.3695V22.686" stroke="#EE3524" stroke-width="1.5" stroke-linecap="round" stroke-linejoin="round"/>
<path d="M20.1641 30.2621V28.5786" stroke="#EE3524" stroke-width="1.5" stroke-linecap="round" stroke-linejoin="round"/>
<path d="M14.2734 39.5295H17.6404C19.0351 39.5295 20.1657 38.3989 20.1657 37.0042V34.479" stroke="#EE3524" stroke-width="1.5" stroke-linecap="round" stroke-linejoin="round"/>
<path d="M43.7387 27.7366H26.8955C25.5008 27.7366 24.3703 28.8672 24.3703 30.2618V38.6793C24.3703 41.4686 22.1091 43.7298 19.3198 43.7298H2.47656" stroke="#EE3524" stroke-width="1.5" stroke-linecap="round" stroke-linejoin="round"/>
<path d="M24.3711 2.47607V16.794C24.3711 18.1887 25.5017 19.3193 26.8963 19.3193H43.7395" stroke="#EE3524" stroke-width="1.5" stroke-linecap="round" stroke-linejoin="round"/>
<path d="M2.47656 35.3207H13.4275C14.8222 35.3207 15.9528 34.1902 15.9528 32.7955V2.47607" stroke="#EE3524" stroke-width="1.5" stroke-linecap="round" stroke-linejoin="round"/>
</svg>
